X: 1
T: Happy To Meet, Sorry To Part
R: jig
M: 6/8
L: 1/8
K: Gmaj
|:dBB BAB|GEF G2A|Bee dBA|B2B gfe|
dBB BAB|GEF G2A|Bee dBA|BGG G3:|
|:g2g fed|Bdd def|g2g fed|Bee e2f|
g2g fed|Bdd def|gfg eag|fef gfg:||


Tune 1154	Setting 23654

